src/lib/packages/icons/src/assets/filled/play-circle.svg

<svg width="24" height="24" viewBox="0 0 24 24" fill="none" xmlns="http://www.w3.org/2000/svg">
<path d="M12 2C6.477 2 2 6.477 2 12C2 17.523 6.477 22 12 22C17.523 22 22 17.523 22 12C22 6.477 17.523 2 12 2ZM15.46 13.061L10.9821 15.801C10.0911 16.346 8.94495 15.7071 8.94495 14.6641V9.33594C8.94495 8.29294 10.0911 7.65397 10.9821 8.19897L15.46 10.939C16.254 11.425 16.254 12.575 15.46 13.061Z" fill="currentColor"/>
</svg>

<svg xmlns="http://www.w3.org/2000/svg" width="24" height="24" fill="none"><path fill="currentColor" d="M12 2C6.477 2 2 6.477 2 12s4.477 10 10 10 10-4.477 10-10S17.523 2 12 2Zm3.46 11.061-4.478 2.74c-.89.545-2.037-.094-2.037-1.137V9.336c0-1.043 1.146-1.682 2.037-1.137l4.478 2.74a1.243 1.243 0 0 1 0 2.122Z"/></svg>
